X:3506
T:Coureur De Bois
C:Andy De Jarlis
M:2/4
L:1/8
K:E
E/E/|EG/B/ c/B/G/E/|B,/E/G/B/ ee|FA/c/ f/c/A/c/|ff/e/ f/a/g/e/|!
EG/B/ c/B/G/E/|B,/E/G/B/ ee|B/c/d/e/ f/g/a/f/|e/c/B/G/ E:|!
|:G/A/|B/e/e/e/ ee/f/|g/e/f/g/ e/e/e|B/c/d/e/ ff/e/|f/g/a/f/ g/B/f|!
B/e/e/e/ ee/f/|g/e/f/g/ e/e/e|B/c/d/e/ f/g/a/f/|e/c/B/G/ E:|!


